X:70
T:Broad Hoop. JaW.070
M:C|
L:1/4
Q:1/2=120
S:James Winder Ms, Lancashire, 1835-41
R:.misc.
O:England
A:Wyresdale,Lancashire
Z:vmp.Chris Partington, Aug 2004
K:G
“_Unedited”BGGB|dBdf|AFFA/B/|cFAc|!
BGGB|dcdg|fdcA|G-G:|!
|:”sic”gd/d(e/f/)|g/ d/ d3/2f|c<c (e/f/)g|!
c<cfd|d(e/f/)gd|dgec|AFGG:||!
zzzz|zzzz|zzzz||!
” Edited by CGP”
|:BGGB|dBdf|AFFA/B/|cFAc|!
BGGB|dcdg|fdcA|G2G2:|!
|:”sic”g>dd(e/f/)|gd d>g|fcc (d/e/)|fcc(e/f/)|!
gd d(e/f/)|gd dg|ec AF |G2G2:|

